X: 14040
T: JACKSON'S REEL
C: Bob McQuillen June'09
B: Bob's Note Book 14 #40
%R: reel
%D:2009
Z: 2020 John Chambers <jc:trillian.mit.edu>
M: C
L: 1/8
K: G
DE \
| G2GB AGED | BGBd gdBd | c2ec BdBG | FGAF DcBA |
| G2BG AGED | GBdg edBG | cdef gedc | BGAF G2  :|
|: dc \
| B2GA BGAB | cBAB cedc | B2GB AGED | GABc A2dc |
| Bded BGAB | cBAB cedc | Bdgd egdB | dBAB G2  :|
%%begintext align
%% When Jackson Reed was
%% pretty small, he used to come to local contra-dances
%% and keep me company when I was playing the piano.
%% Nowadays, he's a six-footer, and lives up in Alaska.
%% AK or no, Jackson, I still think you need a tune, so
%% here it is, with all good wishes to you and your
%% mom, Carol, from Bob--
%%endtext

%%sep 1 1 500

%%sep 1 1 500

